X: 36
T: Barker's Maggot
P: Longways for as many as will
%R: triple hornpipe, minuet
B: "The Dancing-Master: Containing Directions and Tunes for Dancing" printed by W. Pearson for John Walsh, London ca. 1709
S: 7: DMDfD http://digital.nls.uk/special-collections-of-printed-music/pageturner.cfm?id=89751228 p.348
Z: 2013 John Chambers <jc:trillian.mit.edu>
N: Repeats added to satisfy the "Each Strain play'd twice over" instructions.
M: 3/2
L: 1/8
K: Ddor
% - - - - - - - - - - - - - - - - - - - - - - - - -
|:\
D2d2 (cB)A2 c4 | GEC2 C2D2 (EF)(GE) |\
D2d2 (cB)A2 d4 | AFD2 DFD2 (EF)(GE) :|\
|: D2a2 gfe2 c4 | GEC2 C2D2 EFGE |
D2a2 gfe2 d4 | (AF)D2 (DF)D2 (EF)(GE) :|\
|: (af)d2 (ec)A2 c4 | (GE)C2D2 EFGE |\
(af)d2 (ec)A2 d4 | AFD2 DFD2 EFGE :|
% - - - - - - - - Dance description - - - - - - - -
%%text Note: Each Strain play'd twice over.
%%begintext align
%% The first couple Sett and cast off, and cast up again; the second couple do the same .| Then cross
%% over and half Figure and lead through the third couple and cast up :| Then cast up the first couple,
%% then the 1. couple cast up the second couple and right and left .:|
%% [DMDfD]
%%endtext
%%sep 1 8 500

%%sep 1 1 500
%%sep 1 1 500
